X:39
M:2/4
L:1/8
K:D
|: e | fdec | BGAF | G>Bd>F | EEEe | fdec | BGAF | G>BA>F | D/D/D D :|

